dist/assets/paw.svg

<svg width="580" height="580" fill="none" xmlns="http://www.w3.org/2000/svg"><g clip-path="url(#a)"><path d="M207.509 246.256c37.735 15.859 85.737-12.431 107.02-63.071 21.281-50.638 7.903-104.737-29.83-120.596-37.724-15.854-85.735 12.445-107.016 63.083-21.283 50.641-7.897 104.73 29.826 120.584Zm165.417 174.625c-.6-2.501-1.188-4.87-1.256-6.722-1.536-39.181-27.249-95.417-94.793-124.934l-2.608-1.113c-66.904-28.117-123.9-9.046-154.943 18.19-1.067.929-2.971 1.917-4.987 2.96-2.377 1.217-4.756 2.484-6.978 4.013-23.268 15.975-40.799 37.604-49.345 60.902-9.088 24.73-7.12 48.487 5.495 66.87 5.099 7.422 11.686 12.85 19.593 16.174 16.305 6.852 35.093 3.942 56.862.576 13.848-2.156 28.148-4.376 42.968-4.308 1.61.129 7.705 1.852 17.182 5.835 11.27 4.737 18.943 9.141 20.421 10.465 10.033 10.615 17.854 22.295 25.424 33.578 11.598 17.314 22.551 33.657 38.984 40.563 7.053 2.964 14.671 3.976 22.66 3.022 44.075-5.261 74.16-57.872 67.071-117.268-.356-2.98-1.041-5.911-1.75-8.803Zm-19.917-113.476c37.717 15.851 85.726-12.435 107.009-63.076 21.281-50.637 7.897-104.74-29.82-120.591-37.738-15.86-85.745 12.44-107.026 63.079-21.283 50.64-7.901 104.728 29.837 120.588Zm132.19.072c-30.243-12.71-67.093 8.707-83.92 48.747-16.82 40.022-6.32 81.344 23.908 94.047 30.226 12.703 67.107-8.705 83.927-48.727 16.827-40.039 6.326-81.358-23.915-94.067Zm-340.668-59.155c16.828-40.04 6.326-81.358-23.903-94.063-30.231-12.705-67.1 8.706-83.927 48.745-16.82 40.022-6.316 81.345 23.915 94.05 30.23 12.705 67.095-8.71 83.915-48.732Z" fill="#F4A201"/></g><defs><clipPath id="a"><path fill="#fff" d="M0 0h580v580H0z"/></clipPath></defs></svg>

<svg width="580" height="580" viewBox="0 0 580 580" fill="none" xmlns="http://www.w3.org/2000/svg">
<g clip-path="url(#clip0_21_20)">
<path d="M207.509 246.256C245.244 262.115 293.246 233.825 314.529 183.185C335.81 132.547 322.432 78.4475 284.699 62.5893C246.975 46.7351 198.964 75.034 177.683 125.672C156.4 176.313 169.786 230.402 207.509 246.256ZM372.926 420.881C372.326 418.38 371.738 416.011 371.67 414.159C370.134 374.978 344.421 318.742 276.877 289.225L274.269 288.112C207.365 259.995 150.369 279.066 119.326 306.302C118.259 307.231 116.355 308.219 114.339 309.262C111.962 310.479 109.583 311.746 107.361 313.275C84.0926 329.25 66.5622 350.879 58.0159 374.177C48.928 398.907 50.896 422.664 63.5108 441.047C68.6099 448.469 75.1966 453.897 83.1039 457.221C99.409 464.073 118.197 461.163 139.966 457.797C153.814 455.641 168.114 453.421 182.934 453.489C184.544 453.618 190.639 455.341 200.116 459.324C211.386 464.061 219.059 468.465 220.537 469.789C230.57 480.404 238.391 492.084 245.961 503.367C257.559 520.681 268.512 537.024 284.945 543.93C291.998 546.894 299.616 547.906 307.605 546.952C351.68 541.691 381.765 489.08 374.676 429.684C374.32 426.704 373.635 423.773 372.926 420.881ZM353.009 307.405C390.726 323.256 438.735 294.97 460.018 244.329C481.299 193.692 467.915 139.589 430.198 123.738C392.46 107.878 344.453 136.178 323.172 186.817C301.889 237.457 315.271 291.545 353.009 307.405ZM485.199 307.477C454.956 294.767 418.106 316.184 401.279 356.224C384.459 396.246 394.959 437.568 425.187 450.271C455.413 462.974 492.294 441.566 509.114 401.544C525.941 361.505 515.44 320.186 485.199 307.477ZM144.531 248.322C161.359 208.282 150.857 166.964 120.628 154.259C90.397 141.554 53.5282 162.965 36.7011 203.004C19.881 243.026 30.385 284.349 60.6157 297.054C90.8465 309.759 127.711 288.344 144.531 248.322Z" fill="#F4A201"/>
</g>
<defs>
<clipPath id="clip0_21_20">
<rect width="580" height="580" fill="white"/>
</clipPath>
</defs>
</svg>
